icon/pk/hippo.svg

<svg viewBox="0 0 48 48" fill="none" xmlns="http://www.w3.org/2000/svg" height="1em" width="1em">
  <rect x="7" y="25" width="34" height="18" rx="6" stroke="black" stroke-width="4" stroke-linejoin="round"/>
  <circle cx="17" cy="34" r="3" fill="#2F88FF" stroke="black" stroke-width="4"/>
  <circle cx="31" cy="34" r="3" fill="#2F88FF" stroke="black" stroke-width="4"/>
  <path d="M11 19C11 15.6863 13.6863 13 17 13H31C34.3137 13 37 15.6863 37 19V25H11V19Z" fill="#2F88FF" stroke="black" stroke-width="4" stroke-linejoin="round"/>
  <circle cx="20" cy="19" r="2" fill="white"/>
  <circle cx="28" cy="19" r="2" fill="white"/>
  <path d="M18 5C19.6569 5 21 6.34315 21 8L21 13L15 13L15 8C15 6.34315 16.3431 5 18 5Z" fill="#2F88FF" stroke="black" stroke-width="4" stroke-linejoin="round"/>
  <path d="M30 5C31.6569 5 33 6.34315 33 8L33 13L27 13L27 8C27 6.34315 28.3431 5 30 5Z" fill="#2F88FF" stroke="black" stroke-width="4" stroke-linejoin="round"/>
</svg>

<svg width="48" height="48" fill="none" xmlns="http://www.w3.org/2000/svg"><rect x="7" y="25" width="34" height="18" rx="6" stroke="#000" stroke-width="4" stroke-linejoin="round"/><circle cx="17" cy="34" r="3" fill="#2F88FF" stroke="#000" stroke-width="4"/><circle cx="31" cy="34" r="3" fill="#2F88FF" stroke="#000" stroke-width="4"/><path d="M11 19a6 6 0 0 1 6-6h14a6 6 0 0 1 6 6v6H11v-6Z" fill="#2F88FF" stroke="#000" stroke-width="4" stroke-linejoin="round"/><circle cx="20" cy="19" r="2" fill="#fff"/><circle cx="28" cy="19" r="2" fill="#fff"/><path d="M18 5a3 3 0 0 1 3 3v5h-6V8a3 3 0 0 1 3-3ZM30 5a3 3 0 0 1 3 3v5h-6V8a3 3 0 0 1 3-3Z" fill="#2F88FF" stroke="#000" stroke-width="4" stroke-linejoin="round"/></svg>
